X:63
T:Up the Water
M:2/4
L:1/8
B:Thompson's Compleat Collection of 200 Favourite Country Dances, vol. 3 (London, 1773)
Z:Transcribed and edited by Flynn Titford-Mock, 2007
Z:abc's:AK/Fiddler's Companion
K:A
A(cc)e | B(dd)f | ecBA | GBGE | A(cc)e | B(dd)a | geB^d | e2 E2 :|
|: f(dd)f | e(cc)e | d(BB)c | dBGE | f(dd)f | e(aa)d | cAEG | A2 A,2 :|

